X: 2
T:Shepherds' Hey, Badby
M:2/2
L:1/8
Q:240
S:CJS
A:Badby
P:A(AB2)4A
K:G
P:A
G|:BcdB c2(3cdc|BcdB A2D2|BcdB c2Bc|d2D2 G3 A:|
P:B
|:B2G2 c3A    |B2G2 A3A |BcdB c2Bc|d2D2 G3A:|
